X: 8458
T: Craic With Jack
R: polka
M: 2/4
K: Adorian
eA a>g|ed ce|d>e dc|B/c/d/c/ B/c/d/c/|
BA a>g|ed ce|dc Bc|A2 AB|
eA a>g|ed ce|d>e dc|B/c/d/c/ BG|
A,>B, CD|EG AB|ce Bc|A2 AB||
A a2 A|g2 fg/f/|ed eg|ed cB|
A a2 A|g2 fg/f/|ed eg|a2 ab|
a>g ed|eA A/B/c/A/|d>e dc|B/c/d/c/ BG|
A,>B, CD|EG AB|ce Bc/B/|A2 AB||

